X: 1683
T: Ansty's
R: barndance
M: 4/4
K: Amajor
|:EF AB c2BA|Bc BA F2E2|EF AB ce eB|c2B2B2AF|
EF AB c2BA|Bc BA F2E2|e2ef ec A/B/c|B2A2A4:|
a2ec AB cA|Bc BAF2E2|a2ec AB cA|
[1c2B2B2e/f/g|a2ec AB cA|Bc BA F2E2|EF AB ce ec|B2A2A2e/f/g:|
[2c2B2B2cd|ef edc2BA|Bc BAF2E2|EF AB ce ec|B2A2A4||

